spark_serving.svg

<svg height="586.2" preserveAspectRatio="xMidYMid meet" viewBox="146.35070987 36.4559252 410.42952438 590.19792095" width="406.43" xmlns="http://www.w3.org/2000/svg" xmlns:xlink="http://www.w3.org/1999/xlink"><defs><path id="a" d="m263.59 432.86 33.7-18.53-65.71 209.32 82.55-155.41 7.58-80.86-37.06-12.64-31.16 4.22-106.14 192.89z"/><path id="b" d="m273.7 404.23-42.96 114.55 77.5-96.87 4.21 140.67 58.96-192.05-11.79-80.86-80.02 34.53-127.2 150.78z"/><path id="c" d="m468.62 317.85c-.87-1.97-1.26-2.96-1.73-3.92-12.51-25.45-25-50.92-37.63-76.31-1.28-2.55-1.12-4.07.62-6.25 19.91-24.87 39.72-49.85 59.55-74.8.7-.87 1.32-1.81 1.59-3.37-5.8 1.62-11.6 3.22-17.39 4.87-24.06 6.81-48.12 13.61-72.16 20.52-2.24.65-3.26-.06-4.37-2.04-13.67-24.41-27.4-48.76-41.13-73.12-.71-1.27-1.47-2.5-2.98-3.56-1.1 6.5-2.23 13-3.31 19.5-3.82 22.96-7.63 45.93-11.44 68.9-.42 2.48-.99 4.95-1.19 7.44-.19 2.38-1.32 3.25-3.33 3.92-28.35 9.52-56.68 19.14-85.01 28.74-1.24.42-2.46.96-3.79 2.26 23.17 9.85 46.35 19.7 69.88 29.7-.86.73-1.41 1.28-2.04 1.72-14.49 10.03-29 20.01-43.45 30.09-1.73 1.2-3.11 1.37-5.05.44-17.3-8.34-34.68-16.51-52.01-24.79-7.78-3.71-14.78-8.65-20.23-15.78-12.32-16.12-9.89-34.46 6.53-45.66 5.38-3.67 11.47-6.42 17.56-8.54 27.77-9.68 55.64-19.01 83.51-28.37 2.33-.78 3.42-1.9 3.85-4.6 3.71-22.99 7.56-45.95 11.43-68.9 2.08-12.28 3.18-24.87 8.76-36.11 2.15-4.33 4.72-8.56 7.78-12.19 11.05-13.12 26.49-13.63 38.19-1.13 3.94 4.22 7.34 9.2 10.27 14.31 12.88 22.46 25.56 45.07 38.16 67.72 1.49 2.67 2.84 3.22 5.6 2.42 31.06-8.9 62.16-17.67 93.26-26.46 6.42-1.81 12.91-2.48 19.49-1.16 14.33 2.87 20.6 14.54 15.75 29.35-2.21 6.75-6.01 12.44-10.3 17.83-21.7 27.29-43.36 54.61-65.14 81.83-1.78 2.23-1.82 3.84-.58 6.32 12.99 26.18 25.86 52.43 38.79 78.65 3.09 6.28 5.45 12.79 5.52 20 .15 16.39-11.06 29.8-26.29 32.19-8.53 1.34-16.46-.61-24.45-3.25-19.48-6.44-38.99-12.77-58.52-19.05-1.81-.58-2.5-1.33-2.82-3.42-2.24-14.69-4.69-29.36-7.06-44.03-.07-.4.04-.84.1-1.74 22.23 6.56 44.26 13.06 67.21 19.83"/></defs><use fill="#9fe0f5" xlink:href="#a"/><use fill="none" stroke="#9fe0f5" xlink:href="#a"/><use fill="#5fcbef" xlink:href="#b"/><use fill="none" stroke="#5fcbef" xlink:href="#b"/><use fill="#e25a1c" xlink:href="#c"/><use fill="none" xlink:href="#c"/></svg>

<?xml version="1.0" encoding="UTF-8" standalone="no"?>
<!DOCTYPE svg PUBLIC "-//W3C//DTD SVG 1.1//EN" "http://www.w3.org/Graphics/SVG/1.1/DTD/svg11.dtd">
<svg version="1.1" xmlns="http://www.w3.org/2000/svg" xmlns:xlink="http://www.w3.org/1999/xlink" preserveAspectRatio="xMidYMid meet" viewBox="146.35070986903446 36.45592520245256 410.4295243751598 590.1979209513934" width="406.43" height="586.2"><defs><path d="" id="f7fu9QD8t"></path><path d="M263.59 432.86L297.29 414.33L231.58 623.65L314.13 468.24L321.71 387.38L284.65 374.74L253.49 378.96L147.35 571.85L263.59 432.86Z" id="e3IOHrEjI"></path><path d="M273.7 404.23L230.74 518.78L308.24 421.91L312.45 562.58L371.41 370.53L359.62 289.67L279.6 324.2L152.4 474.98L273.7 404.23Z" id="bAG9pUwlS"></path><path d="M468.62 317.85C467.75 315.88 467.36 314.89 466.89 313.93C454.38 288.48 441.89 263.01 429.26 237.62C427.98 235.07 428.14 233.55 429.88 231.37C449.79 206.5 469.6 181.52 489.43 156.57C490.13 155.7 490.75 154.76 491.02 153.2C485.22 154.82 479.42 156.42 473.63 158.07C449.57 164.88 425.51 171.68 401.47 178.59C399.23 179.24 398.21 178.53 397.1 176.55C383.43 152.14 369.7 127.79 355.97 103.43C355.26 102.16 354.5 100.93 352.99 99.87C351.89 106.37 350.76 112.87 349.68 119.37C345.86 142.33 342.05 165.3 338.24 188.27C337.82 190.75 337.25 193.22 337.05 195.71C336.86 198.09 335.73 198.96 333.72 199.63C305.37 209.15 277.04 218.77 248.71 228.37C247.47 228.79 246.25 229.33 244.92 230.63C268.09 240.48 291.27 250.33 314.8 260.33C313.94 261.06 313.39 261.61 312.76 262.05C298.27 272.08 283.76 282.06 269.31 292.14C267.58 293.34 266.2 293.51 264.26 292.58C246.96 284.24 229.58 276.07 212.25 267.79C204.47 264.08 197.47 259.14 192.02 252.01C179.7 235.89 182.13 217.55 198.55 206.35C203.93 202.68 210.02 199.93 216.11 197.81C243.88 188.13 271.75 178.8 299.62 169.44C301.95 168.66 303.04 167.54 303.47 164.84C307.18 141.85 311.03 118.89 314.9 95.94C316.98 83.66 318.08 71.07 323.66 59.83C325.81 55.5 328.38 51.27 331.44 47.64C342.49 34.52 357.93 34.01 369.63 46.51C373.57 50.73 376.97 55.71 379.9 60.82C392.78 83.28 405.46 105.89 418.06 128.54C419.55 131.21 420.9 131.76 423.66 130.96C454.72 122.06 485.82 113.29 516.92 104.5C523.34 102.69 529.83 102.02 536.41 103.34C550.74 106.21 557.01 117.88 552.16 132.69C549.95 139.44 546.15 145.13 541.86 150.52C520.16 177.81 498.5 205.13 476.72 232.35C474.94 234.58 474.9 236.19 476.14 238.67C489.13 264.85 502 291.1 514.93 317.32C518.02 323.6 520.38 330.11 520.45 337.32C520.6 353.71 509.39 367.12 494.16 369.51C485.63 370.85 477.7 368.9 469.71 366.26C450.23 359.82 430.72 353.49 411.19 347.21C409.38 346.63 408.69 345.88 408.37 343.79C406.13 329.1 403.68 314.43 401.31 299.76C401.24 299.36 401.35 298.92 401.41 298.02C423.64 304.58 445.67 311.08 468.62 317.85" id="a5F7NOPcz"></path></defs><g><g><g><use xlink:href="#f7fu9QD8t" opacity="1" fill-opacity="0" stroke="#5fcbef" stroke-width="1" stroke-opacity="1"></use></g></g><g><use xlink:href="#e3IOHrEjI" opacity="1" fill="#9fe0f5" fill-opacity="1"></use><g><use xlink:href="#e3IOHrEjI" opacity="1" fill-opacity="0" stroke="#9fe0f5" stroke-width="1" stroke-opacity="1"></use></g></g><g><use xlink:href="#bAG9pUwlS" opacity="1" fill="#5fcbef" fill-opacity="1"></use><g><use xlink:href="#bAG9pUwlS" opacity="1" fill-opacity="0" stroke="#5fcbef" stroke-width="1" stroke-opacity="1"></use></g></g><g><use xlink:href="#a5F7NOPcz" opacity="1" fill="#e25a1c" fill-opacity="1"></use><g><use xlink:href="#a5F7NOPcz" opacity="1" fill-opacity="0" stroke="#000000" stroke-width="1" stroke-opacity="0"></use></g></g></g></svg>
